resources/svg/regular/error-alt.svg

<svg xmlns="http://www.w3.org/2000/svg" fill="currentColor" stroke="none" viewBox="0 0 24 24"><path d="M11 7h2v7h-2zm0 8h2v2h-2z"/><path d="m21.707 7.293-5-5A.996.996 0 0 0 16 2H8a.996.996 0 0 0-.707.293l-5 5A.996.996 0 0 0 2 8v8c0 .266.105.52.293.707l5 5A.996.996 0 0 0 8 22h8c.266 0 .52-.105.707-.293l5-5A.996.996 0 0 0 22 16V8a.996.996 0 0 0-.293-.707zM20 15.586 15.586 20H8.414L4 15.586V8.414L8.414 4h7.172L20 8.414v7.172z"/></svg>

<svg xmlns="http://www.w3.org/2000/svg" fill="currentColor" stroke="none" viewBox="0 0 24 24"><path d="M11 7H13V14H11zM11 15H13V17H11z"/><path d="M21.707,7.293l-5-5C16.52,2.105,16.266,2,16,2H8C7.734,2,7.48,2.105,7.293,2.293l-5,5C2.105,7.48,2,7.734,2,8v8 c0,0.266,0.105,0.52,0.293,0.707l5,5C7.48,21.895,7.734,22,8,22h8c0.266,0,0.52-0.105,0.707-0.293l5-5 C21.895,16.52,22,16.266,22,16V8C22,7.734,21.895,7.48,21.707,7.293z M20,15.586L15.586,20H8.414L4,15.586V8.414L8.414,4h7.172 L20,8.414V15.586z"/></svg>
